src/public/images/grey-star.svg

<svg width="30" height="28" viewBox="0 0 30 28" fill="none" xmlns="http://www.w3.org/2000/svg">
<path d="M14.2989 0.927049C14.5983 0.00573824 15.9017 0.00574 16.2011 0.927051L18.8984 9.22847C19.0322 9.6405 19.4162 9.91946 19.8494 9.91946H28.578C29.5468 9.91946 29.9495 11.1591 29.1658 11.7285L22.1042 16.859C21.7537 17.1137 21.6071 17.565 21.7409 17.9771L24.4382 26.2785C24.7376 27.1998 23.6831 27.9659 22.8994 27.3965L15.8378 22.266C15.4873 22.0113 15.0127 22.0113 14.6622 22.266L7.6006 27.3965C6.81689 27.9659 5.76241 27.1998 6.06176 26.2785L8.75906 17.9771C8.89293 17.565 8.74627 17.1137 8.39578 16.859L1.33417 11.7285C0.550458 11.1591 0.953234 9.91946 1.92196 9.91946H10.6506C11.0838 9.91946 11.4678 9.6405 11.6016 9.22847L14.2989 0.927049Z" fill="#A7A7A7"/>
</svg>

<svg xmlns="http://www.w3.org/2000/svg" width="30" height="28" fill="none" xmlns:v="https://vecta.io/nano"><path d="M14.299.927c.299-.921 1.603-.921 1.902 0l2.697 8.301a1 1 0 0 0 .951.691h8.729c.969 0 1.372 1.24.588 1.809l-7.062 5.131a1 1 0 0 0-.363 1.118l2.697 8.301c.299.921-.755 1.687-1.539 1.118l-7.062-5.131a1 1 0 0 0-1.176 0l-7.062 5.131c-.784.569-1.838-.197-1.539-1.118l2.697-8.301a1 1 0 0 0-.363-1.118l-7.062-5.131c-.784-.569-.381-1.809.588-1.809h8.729a1 1 0 0 0 .951-.691L14.299.927z" fill="#a7a7a7"/></svg>
